libs/ui/packages/crypto-icons/src/svg/FAIR.svg

<svg width="24" height="24" viewBox="0 0 24 24" fill="none">
<path fill-rule="evenodd" clip-rule="evenodd" d="M5.99994 18.1904L6.03219 18.0592C6.14844 17.6114 6.45294 17.3354 6.90744 17.2102C7.36869 17.0827 7.80894 17.1314 8.20869 17.4029C8.33994 17.4914 8.43894 17.6047 8.50269 17.7464C8.52069 17.7847 8.55594 17.8162 8.58369 17.8514C8.61369 17.8169 8.65644 17.7869 8.67144 17.7479C8.76969 17.4862 8.87994 17.2274 8.95419 16.9604C9.35619 15.5054 9.74919 14.0497 10.1437 12.5939C10.1594 12.5369 10.1692 12.4777 10.1834 12.4087C10.0784 12.4087 9.98094 12.4094 9.88419 12.4087C9.55269 12.4027 9.21969 12.4124 8.88969 12.3869C8.44044 12.3524 8.13519 12.0757 8.12694 11.6504C8.11944 11.2784 8.33919 10.9927 8.75994 10.9199C9.05394 10.8689 9.36294 10.8884 9.66519 10.8832C9.95544 10.8787 10.2449 10.8832 10.5352 10.8802C10.5614 10.8802 10.6057 10.8502 10.6124 10.8269C10.6859 10.5689 10.7542 10.3094 10.8224 10.0492C10.8269 10.0342 10.8232 10.0169 10.8232 9.9914C10.4947 9.9914 10.1699 10.0012 9.84594 9.9884C9.59094 9.9779 9.34494 9.92015 9.13194 9.77315C8.86719 9.5909 8.79444 9.33065 8.83719 9.04265C8.88069 8.75165 9.06744 8.55665 9.36594 8.4749C9.47094 8.4464 9.58494 8.4344 9.69444 8.43365C10.1627 8.42903 10.631 8.43003 11.0992 8.43665C11.2124 8.4389 11.2627 8.40215 11.3077 8.30765C11.4637 7.9829 11.6167 7.65515 11.7974 7.3439C12.1274 6.77615 12.5144 6.2429 12.9944 5.7794C13.6267 5.1704 14.3714 4.7384 15.2639 4.58015C15.8564 4.47515 16.4534 4.44965 17.0354 4.64915C17.3849 4.76915 17.6444 4.99191 17.8079 5.31216C17.9107 5.51465 18.0104 5.7149 17.9992 5.95265C17.9669 6.62765 17.3932 7.05665 16.8734 7.0739C16.4744 7.0874 16.1309 6.9794 15.8654 6.69065C15.6157 6.41915 15.5849 6.1034 15.6854 5.76665C15.6929 5.7419 15.7027 5.71715 15.7117 5.69166L15.6914 5.66615C15.6404 5.69915 15.5827 5.72615 15.5399 5.76665C15.3158 5.98329 15.1261 6.23293 14.9774 6.5069C14.6624 7.0709 14.4352 7.6679 14.2477 8.2799C14.2417 8.29865 14.2432 8.31965 14.2402 8.3519C14.4022 8.3519 14.5619 8.35415 14.7202 8.3519C14.9512 8.34815 15.1807 8.3489 15.4004 8.4314C15.6682 8.5319 15.8729 8.69615 15.9269 8.9774C15.9817 9.26315 15.9254 9.4874 15.6584 9.70565C15.4409 9.88415 15.1859 9.9209 14.9197 9.9299C14.5642 9.9419 14.2072 9.9449 13.8517 9.9509C13.8044 9.95165 13.7669 9.9509 13.7534 10.0109C13.6957 10.2562 13.6327 10.5007 13.5719 10.7452C13.5689 10.7572 13.5727 10.7707 13.5742 10.7917C13.8239 10.7917 14.0722 10.7842 14.3197 10.7932C14.5859 10.8029 14.8319 10.8727 15.0262 11.0647C15.2632 11.3002 15.2962 11.6377 15.0982 11.9024C15.0337 11.9887 14.9564 12.0674 14.8867 12.1499C14.7412 12.3209 14.5379 12.3802 14.3219 12.3884C13.9522 12.4034 13.5817 12.4072 13.2119 12.4049C13.1114 12.4049 13.0717 12.4349 13.0492 12.5234C12.9179 13.0439 12.7919 13.5659 12.6464 14.0834C12.3539 15.1237 12.0284 16.1534 11.4944 17.1104C11.2376 17.5758 10.9139 18.0011 10.5337 18.3727C9.97644 18.9142 9.31644 19.2854 8.52744 19.4227C7.98894 19.5157 7.44594 19.5479 6.91494 19.3867C6.46494 19.2502 6.15369 18.9704 6.03369 18.5212L5.99994 18.3899V18.1904Z" fill="#C99705"/>
</svg>

<svg width="24" height="24" viewBox="0 0 24 24" fill="none"><path fill="#c99705" fill-rule="evenodd" d="m6 18.19.032-.13c.116-.449.42-.725.875-.85.462-.127.902-.079 1.302.193a.8.8 0 0 1 .294.343c.018.039.053.07.08.105.03-.034.073-.064.088-.103.099-.262.209-.52.283-.788.402-1.455.795-2.91 1.19-4.366.015-.057.025-.116.04-.185h-.3c-.331-.006-.664.003-.994-.022-.45-.035-.755-.311-.763-.737-.008-.372.212-.657.633-.73.294-.051.603-.032.905-.037.29-.004.58 0 .87-.003.026 0 .07-.03.077-.053q.11-.388.21-.778c.005-.015.001-.032.001-.058-.328 0-.653.01-.977-.003a1.33 1.33 0 0 1-.714-.215c-.265-.182-.338-.442-.295-.73.044-.291.23-.486.529-.568.105-.029.219-.04.328-.041q.703-.008 1.405.003c.113.002.164-.035.209-.13.156-.324.309-.652.49-.963a7 7 0 0 1 1.196-1.565c.633-.609 1.377-1.04 2.27-1.199.592-.105 1.19-.13 1.771.07q.527.181.773.662c.103.203.202.403.191.64-.032.676-.606 1.105-1.126 1.122-.399.013-.742-.095-1.008-.383-.25-.272-.28-.588-.18-.924l.027-.075-.02-.026c-.052.033-.11.06-.152.1a3 3 0 0 0-.563.74 9 9 0 0 0-.73 1.774c-.005.019-.004.04-.007.072q.243.002.48 0c.231-.004.46-.003.68.08.268.1.473.264.527.545.055.286-.002.51-.269.729-.217.178-.472.215-.738.224-.356.012-.713.015-1.068.02-.048.002-.085 0-.099.06q-.088.368-.181.735-.003.017.002.047c.25 0 .498-.008.746.001.266.01.512.08.706.272.237.235.27.573.072.837-.064.087-.142.165-.211.248-.146.17-.35.23-.565.238q-.555.022-1.11.017c-.1 0-.14.03-.163.118-.131.52-.257 1.043-.403 1.56-.292 1.04-.618 2.07-1.152 3.027a5.4 5.4 0 0 1-.96 1.263c-.558.541-1.218.912-2.007 1.05-.538.093-1.081.125-1.612-.036-.45-.137-.761-.417-.881-.866L6 18.39z" clip-rule="evenodd"/></svg>
